X:1
T:P. Joe's
R:jig
M:6/8
L:1/8
K:Em
|:B2E EGE|DB,D DB,D|B2E EDE|c2c ~B2A|
|B2E EGE|DB,D DB,D|EFG AFD|1 G3 G2A:|2 G3 G2D|]
|:G2G BGG|dGG BAG|G2G BAG|c2c ~B2A|
|G2G BGG|dGG BAG|d2d ded|c2c ~B2A:|